icons/svg/account-outline.svg

﻿<?xml version="1.0" encoding="utf-8"?>
<!DOCTYPE svg PUBLIC "-//W3C//DTD SVG 1.1//EN" "http://www.w3.org/Graphics/SVG/1.1/DTD/svg11.dtd">
<svg xmlns="http://www.w3.org/2000/svg" xmlns:xlink="http://www.w3.org/1999/xlink" version="1.1" baseProfile="full" width="24" height="24" viewBox="0 0 24.00 24.00" enable-background="new 0 0 24.00 24.00" xml:space="preserve">
	<path fill="#000000" fill-opacity="1" stroke-width="0.2" stroke-linejoin="round" d="M 11.9994,12.9981C 9.3324,12.9981 3.99939,14.3331 3.99939,16.9981L 3.99939,19.9981L 19.9994,19.9981L 19.9994,16.9981C 19.9994,14.3331 14.6664,12.9981 11.9994,12.9981 Z M 11.9994,3.99807C 9.79138,3.99807 7.99939,5.79006 7.99939,7.99807C 7.99939,10.2051 9.79138,11.9981 11.9994,11.9981C 14.2074,11.9981 15.9994,10.2051 15.9994,7.99807C 15.9994,5.79006 14.2074,3.99807 11.9994,3.99807 Z M 11.9994,14.8981C 14.9734,14.8981 18.0994,16.3551 18.0994,16.9981L 18.0994,18.0981L 5.89938,18.0981L 5.89938,16.9981C 5.89938,16.3551 9.02539,14.8981 11.9994,14.8981 Z M 11.9994,5.89807C 13.1574,5.89807 14.0994,6.84007 14.0994,7.99807C 14.0994,9.15607 13.1574,10.0981 11.9994,10.0981C 10.8414,10.0981 9.89938,9.15607 9.89938,7.99807C 9.89938,6.84007 10.8414,5.89807 11.9994,5.89807 Z "/>
</svg>

<svg xmlns="http://www.w3.org/2000/svg" version="1.1" baseProfile="full" width="24" height="24" viewBox="0 0 24.00 24.00" xml:space="preserve"><path fill="#000" fill-opacity="1" stroke-width=".2" stroke-linejoin="round" d="M12 12.998c-2.668 0-8 1.335-8 4v3h16v-3c0-2.665-5.334-4-8-4zm0-9c-2.21 0-4 1.792-4 4 0 2.207 1.79 4 4 4 2.207 0 4-1.793 4-4 0-2.208-1.793-4-4-4zm0 10.9c2.973 0 6.1 1.457 6.1 2.1v1.1H5.9v-1.1c0-.643 3.125-2.1 6.1-2.1zm0-9c1.157 0 2.1.942 2.1 2.1 0 1.158-.943 2.1-2.1 2.1-1.16 0-2.1-.942-2.1-2.1 0-1.158.94-2.1 2.1-2.1z"/></svg>
